<?xml version="1.0" encoding="UTF-8"?>
<map version="1.10" tiledversion="1.10.2" orientation="orthogonal" renderorder="right-down" width="21" height="11" tilewidth="64" tileheight="72" infinite="0" nextlayerid="2" nextobjectid="1">
 <tileset firstgid="1" source="Tileset.tsx"/>
 <layer id="1" name="Wall" width="21" height="11">
  <data encoding="csv">
286,286,286,286,286,286,286,286,286,286,286,286,286,286,286,286,286,286,286,286,286,
286,0,0,0,0,0,0,0,0,0,0,0,0,0,0,0,0,0,0,0,286,
286,0,0,0,0,0,0,0,0,0,0,0,0,0,0,0,0,0,0,0,286,
286,0,0,0,0,0,0,0,0,0,0,0,0,0,0,0,0,0,0,0,286,
286,0,0,0,0,0,0,0,0,0,0,0,0,0,0,0,0,0,0,0,286,
286,0,0,0,0,0,0,0,0,0,0,0,0,0,0,0,0,0,0,0,286,
286,0,0,0,0,0,0,0,0,0,0,0,0,0,0,0,0,0,0,0,286,
286,0,0,0,0,0,0,0,0,0,0,0,0,0,0,0,0,0,0,0,286,
286,0,0,0,0,0,0,0,0,0,0,0,0,0,0,0,0,0,0,0,286,
286,0,0,0,0,0,0,0,0,0,0,0,0,0,0,0,0,0,0,0,286,
286,286,286,286,286,286,286,286,286,286,286,286,286,286,286,286,286,286,286,286,286
</data>
 </layer>
</map>
